X: 10
T: Tommy Peoples'
Z: JACKB
S: https://thesession.org/tunes/192#setting52469
R: reel
M: 4/4
L: 1/8
K: Bmin
B3c dBAF|B3c dfed|B3c d3B|ABde fdec|
B3c dBAF|BABc dfed|B3c dBAF|ABde fdec||
dfaf bfaf|dfaf g2 fg|afef dcdB|ABde fdec|
dfaf bfaf|dfaf g2 fg|afef dcdB|ABde fdec||

%-------------------- TUNE SEPARATOR --------------------%

